X: 2
T: The Butlers Of Glen Avenue
R: jig
M: 6/8
L: 1/8
K: Gmaj
|:DEG EDB, | DEG B3 | DEG B3| dBd dBA|
DEG EDB, | DEG B3 | dBd gfe | dBA G3:|
|:gab age|deg B3|gab age| dBd e2d|
gab age|deg B3 |dBd gfe| dBA G3 ||

